X:1
T: Miss Proud
C:
R:Reel
Q: 23
K:G
M:4/4
L:1/8
|:c|B2 dc BG ge|d2 dB AF cA|B2 dc BG ge|dB cA G3:|
|:c|BG Bd AF Ac|BG Bd ge dc|BG Bd AF Ac|dB cA G3:|
|:c|B1/2c1/2d d2 dg ab|A1/2B1/2c c2 cf ga|B1/2c1/2d d2 df gb|af ge d3:|
|:c|B1/2c1/2d BG A1/2B1/2c AF|GA Bc dg ec|B1/2c1/2d BG A1/2B1/2c AF|Gc BA G3:|
